src/components/Camino/assets/dark-mode-title.svg

<svg fill="none" height="52" viewBox="0 0 366 52" width="366" xmlns="http://www.w3.org/2000/svg" xmlns:xlink="http://www.w3.org/1999/xlink"><linearGradient id="a" gradientUnits="userSpaceOnUse" x1="416" x2="399.732" y1="46" y2="-58.6226"><stop offset="0" stop-color="#402dff"/><stop offset="1" stop-color="#c86dd7"/></linearGradient><linearGradient id="b" gradientUnits="userSpaceOnUse" x1="39.0001" x2="13.1174" y1="43" y2="-10.7245"><stop offset="0" stop-color="#3023ae"/><stop offset="1" stop-color="#c86dd7"/></linearGradient><path d="m62.6656 10.7822h2.5977l9.9824 26.2178h-3.544l-2.1894-6.123h-11.0401l-2.2265 6.123h-3.5625zm5.8262 17.293-4.5088-12.6172-4.4902 12.6172zm10.2404-9.6113h3.0615v3.6367c.2845-.8535.7175-1.5772 1.2989-2.1709.5813-.5938 1.2308-1.0391 1.9482-1.3359.7298-.2969 1.472-.4454 2.2266-.4454.569 0 1.1194.0866 1.6513.2598.5319.1608 1.002.4144 1.4102.7607l-1.4473 2.5977c-.6679-.3711-1.3606-.5566-2.0781-.5566-.8411 0-1.6452.2412-2.4121.7236s-1.3978 1.2432-1.8926 2.2822c-.4824 1.0267-.7236 2.3132-.7236 3.8594v8.9248h-3.043zm20.9836-.3155c1.5962 0 2.9622.3093 4.1002.9278 1.151.6061 2.023 1.4782 2.617 2.6162.593 1.138.89 2.4739.89 4.0078v11.2998h-2.616l-.204-3.3027c-.631 1.1627-1.528 2.0595-2.691 2.6904-1.162.6185-2.4054.9277-3.729.9277-1.2617 0-2.3874-.2288-3.3769-.6865-.9773-.47-1.7442-1.138-2.3008-2.0039-.5567-.8783-.835-1.9173-.835-3.1172 0-1.8431.668-3.1852 2.0039-4.0264 1.3483-.8535 3.2285-1.2802 5.6406-1.2802h5.2512c-.013-1.237-.167-2.239-.464-3.0059-.297-.7793-.792-1.3545-1.484-1.7256-.681-.3834-1.602-.5752-2.7651-.5752-2.1152 0-3.7975.9649-5.0468 2.8946l-2.4122-1.7442c.9401-1.2864 2.004-2.2575 3.1915-2.9131s2.5976-.9834 4.2304-.9834zm-1.0205 16.4766c1.5087 0 2.7647-.4515 3.7667-1.3545 1.014-.9154 1.682-2.1029 2.004-3.5625v-1.206h-5.0656c-1.5215 0-2.6719.2783-3.4512.8349-.7669.5567-1.1504 1.3174-1.1504 2.2822 0 .9154.3402 1.6452 1.0205 2.1895.6804.5443 1.639.8164 2.876.8164zm21.2617-.0742c1.608.235 2.913.501 3.915.7978 1.015.2845 1.868.7793 2.561 1.4844s1.039 1.6885 1.039 2.9502c0 1.237-.34 2.2946-1.021 3.1729-.668.8782-1.595 1.54-2.783 1.9853-1.187.4453-2.548.668-4.082.668-1.781 0-3.315-.2722-4.601-.8164-1.274-.5443-2.246-1.2989-2.913-2.2637-.668-.9525-1.002-2.0534-1.002-3.3027 0-.2969.018-.569.055-.8164l2.561-2.2823c-1.472-.7669-2.208-1.9606-2.208-3.581 0-.7793.161-1.4658.482-2.0596.322-.5937.798-1.1256 1.429-1.5957-.507-.569-.897-1.2122-1.169-1.9297-.272-.7174-.408-1.4844-.408-2.3008 0-1.2493.321-2.3688.965-3.3584.643-.9895 1.515-1.7627 2.616-2.3193s2.313-.835 3.637-.835c.865 0 1.688.1237 2.467.3711.78.2351 1.485.5752 2.116 1.0205l2.634-2.2822 1.633 2.041-2.542 2.1153c.619 1.0019.928 2.1399.928 3.414s-.316 2.3998-.946 3.377c-.631.9772-1.491 1.7317-2.58 2.2637-1.088.5319-2.294.7978-3.618.7978-1.385 0-2.647-.2907-3.785-.8721-.767.3711-1.15.9092-1.15 1.6143 0 .5443.204.971.612 1.2803.421.3092.959.538 1.614.6865.668.1484 1.633.3092 2.895.4824zm-.816-13.9531c-.817 0-1.534.1731-2.153.5195-.618.3463-1.094.8288-1.428 1.4473-.334.6184-.501 1.3235-.501 2.1152s.161 1.4905.482 2.0967c.334.5937.804 1.0638 1.41 1.4101.619.334 1.343.501 2.171.501.829 0 1.547-.167 2.153-.501s1.07-.804 1.391-1.4101c.322-.6062.483-1.2989.483-2.0782 0-.804-.161-1.5153-.483-2.1337-.321-.6185-.785-1.101-1.391-1.4473-.606-.3464-1.318-.5195-2.134-.5195zm.427 22.5439c1.509 0 2.702-.2659 3.581-.7978.89-.532 1.336-1.2741 1.336-2.2266 0-.6432-.223-1.1442-.668-1.5029-.433-.3588-1.027-.6247-1.782-.7979-.742-.1732-1.799-.3463-3.172-.5195-.112-.0124-.52-.0619-1.225-.1485-.693-.0866-1.361-.2041-2.004-.3525l-1.744 2.2822.056.5567c.185 1.138.779 2.0039 1.781 2.5976 1.014.6061 2.294.9092 3.841.9092zm19.35-5.8262c-1.768 0-3.346-.4267-4.731-1.2802-1.385-.8659-2.468-2.0287-3.247-3.4883-.767-1.472-1.151-3.0925-1.151-4.8614 0-1.7565.384-3.3584 1.151-4.8056.779-1.4597 1.862-2.61 3.247-3.4512 1.385-.8535 2.963-1.2803 4.731-1.2803 1.769 0 3.346.4268 4.732 1.2803 1.398.8412 2.486 1.9915 3.265 3.4512.78 1.4596 1.169 3.0615 1.169 4.8056 0 1.7689-.389 3.3894-1.169 4.8614-.779 1.4596-1.867 2.6224-3.265 3.4883-1.386.8535-2.963 1.2802-4.732 1.2802zm0-2.7275c1.237 0 2.301-.3093 3.192-.9277.89-.6185 1.565-1.4473 2.022-2.4864.458-1.0514.687-2.2142.687-3.4883 0-1.2617-.229-2.4059-.687-3.4326-.457-1.039-1.132-1.8616-2.022-2.4677-.891-.6062-1.955-.9092-3.192-.9092-1.224 0-2.282.303-3.172.9092-.879.5937-1.547 1.4101-2.004 2.4492-.458 1.0267-.687 2.1771-.687 3.4511 0 1.2741.229 2.4369.687 3.4883.457 1.0515 1.125 1.8864 2.004 2.5049.89.6061 1.948.9092 3.172.9092zm13.321-16.124h3.136v2.8203c.618-1.0267 1.428-1.806 2.43-2.3379s2.085-.7979 3.247-.7979c1.448 0 2.654.3278 3.619.9834.977.6433 1.7 1.5153 2.17 2.6162.483 1.101.736 2.3379.761 3.711v11.541h-3.136v-10.9658c0-1.5586-.364-2.777-1.094-3.6553-.73-.8782-1.788-1.3174-3.173-1.3174-1.509 0-2.691.4515-3.544 1.3545-.854.8906-1.28 2.1895-1.28 3.8965v10.6875h-3.136zm30.537-7.6817h7.255c2.907 0 5.363.5134 7.367 1.5401 2.003 1.0267 3.519 2.5358 4.545 4.5273 1.027 1.9792 1.54 4.3913 1.54 7.2363 0 2.7214-.525 5.0469-1.577 6.9766-1.039 1.9297-2.566 3.4017-4.583 4.416-2.016 1.0143-4.459 1.5215-7.329 1.5215h-7.218zm6.903 23.2119c3.401 0 6.005-.8164 7.811-2.4492 1.819-1.6328 2.728-4.1624 2.728-7.5888 0-3.476-.829-6.0365-2.486-7.6817-1.658-1.6575-4.243-2.4863-7.756-2.4863h-3.934v20.206zm25.028-15.8457c1.596 0 2.963.3093 4.101.9278 1.15.6061 2.022 1.4782 2.616 2.6162s.891 2.4739.891 4.0078v11.2998h-2.616l-.205-3.3027c-.63 1.1627-1.527 2.0595-2.69 2.6904-1.163.6185-2.406.9277-3.73.9277-1.261 0-2.387-.2288-3.376-.6865-.978-.47-1.745-1.138-2.301-2.0039-.557-.8783-.835-1.9173-.835-3.1172 0-1.8431.668-3.1852 2.004-4.0264 1.348-.8535 3.228-1.2802 5.64-1.2802h5.251c-.012-1.237-.167-2.239-.464-3.0059-.296-.7793-.791-1.3545-1.484-1.7256-.68-.3834-1.602-.5752-2.765-.5752-2.115 0-3.797.9649-5.046 2.8946l-2.413-1.7442c.941-1.2864 2.004-2.2575 3.192-2.9131 1.187-.6556 2.597-.9834 4.23-.9834zm-1.02 16.4766c1.509 0 2.764-.4515 3.766-1.3545 1.015-.9154 1.683-2.1029 2.004-3.5625v-1.206h-5.065c-1.522 0-2.672.2783-3.451.8349-.767.5567-1.151 1.3174-1.151 2.2822 0 .9154.34 1.6452 1.021 2.1895.68.5443 1.639.8164 2.876.8164zm13.877-16.1611h3.061v3.6367c.285-.8535.718-1.5772 1.299-2.1709.582-.5938 1.231-1.0391 1.949-1.3359.729-.2969 1.472-.4454 2.226-.4454.569 0 1.12.0866 1.651.2598.532.1608 1.002.4144 1.411.7607l-1.448 2.5977c-.668-.3711-1.36-.5566-2.078-.5566-.841 0-1.645.2412-2.412.7236s-1.398 1.2432-1.892 2.2822c-.483 1.0267-.724 2.3132-.724 3.8594v8.9248h-3.043zm14.508-7.6817h3.136v16.9776l8.702-9.2959h4.1l-6.809 7.0136 7.774 11.5225h-3.711l-6.197-9.5742-3.859 4.1006v5.4736h-3.136zm19.926 7.6817h3.043v2.9131c.519-1.0886 1.249-1.8988 2.189-2.4307s2.01-.7979 3.21-.7979c1.336 0 2.499.3155 3.489.9463.989.6185 1.7 1.5772 2.133 2.876.594-1.2741 1.417-2.2266 2.468-2.8574 1.064-.6432 2.264-.9649 3.6-.9649 1.459 0 2.672.3402 3.637 1.0205.964.6804 1.676 1.6143 2.133 2.8018.47 1.1875.705 2.5544.705 4.1006v10.9287h-3.154v-10.5576c0-1.7442-.309-3.0739-.928-3.9893-.606-.9153-1.608-1.373-3.006-1.373-.927 0-1.744.2288-2.449.6865-.705.4453-1.249 1.0638-1.633 1.8555-.371.7793-.556 1.6637-.556 2.6533v10.7246h-3.136v-11.0215c0-1.5462-.315-2.7461-.946-3.5996-.631-.8659-1.621-1.2988-2.969-1.2988-.94 0-1.763.2288-2.468.6865-.705.4453-1.249 1.0638-1.633 1.8555-.371.7793-.556 1.6637-.556 2.6533v10.7246h-3.154zm39.334 18.8515c-1.769 0-3.346-.4267-4.731-1.2802-1.386-.8659-2.468-2.0287-3.247-3.4883-.767-1.472-1.151-3.0925-1.151-4.8614 0-1.7565.384-3.3584 1.151-4.8056.779-1.4597 1.861-2.61 3.247-3.4512 1.385-.8535 2.962-1.2803 4.731-1.2803s3.346.4268 4.732 1.2803c1.397.8412 2.486 1.9915 3.265 3.4512.78 1.4596 1.169 3.0615 1.169 4.8056 0 1.7689-.389 3.3894-1.169 4.8614-.779 1.4596-1.868 2.6224-3.265 3.4883-1.386.8535-2.963 1.2802-4.732 1.2802zm0-2.7275c1.237 0 2.301-.3093 3.192-.9277.89-.6185 1.564-1.4473 2.022-2.4864.458-1.0514.687-2.2142.687-3.4883 0-1.2617-.229-2.4059-.687-3.4326-.458-1.039-1.132-1.8616-2.022-2.4677-.891-.6062-1.955-.9092-3.192-.9092-1.224 0-2.282.303-3.173.9092-.878.5937-1.546 1.4101-2.004 2.4492-.457 1.0267-.686 2.1771-.686 3.4511 0 1.2741.229 2.4369.686 3.4883.458 1.0515 1.126 1.8864 2.004 2.5049.891.6061 1.949.9092 3.173.9092zm19.982 2.7275c-1.645 0-3.086-.4267-4.323-1.2802-1.237-.8659-2.19-2.0287-2.858-3.4883-.668-1.4597-1.002-3.0677-1.002-4.8242 0-1.7442.328-3.3461.984-4.8057.668-1.4596 1.614-2.6162 2.838-3.4697 1.237-.8659 2.672-1.2989 4.305-1.2989 1.324 0 2.536.3217 3.637.9649 1.113.6432 1.967 1.54 2.56 2.6904v-11.0215h3.192v26.2178h-2.932l-.13-3.5068c-.593 1.2122-1.453 2.1523-2.579 2.8203-1.113.6679-2.344 1.0019-3.692 1.0019zm.742-2.8574c1.175 0 2.189-.2907 3.043-.8721.853-.5813 1.503-1.3792 1.948-2.3935.445-1.0267.668-2.1833.668-3.4697 0-1.2741-.223-2.4183-.668-3.4327-.445-1.0267-1.095-1.8307-1.948-2.4121-.854-.5814-1.868-.872-3.043-.872s-2.196.2968-3.062.8906c-.865.5814-1.527 1.3854-1.985 2.4121-.458 1.0143-.686 2.1523-.686 3.4141 0 1.274.228 2.4244.686 3.4511.458 1.0144 1.12 1.8184 1.985 2.4121.866.5814 1.887.8721 3.062.8721zm21.763 2.8574c-1.893 0-3.507-.4205-4.843-1.2617-1.336-.8411-2.344-1.9792-3.024-3.4141-.681-1.4472-1.021-3.0553-1.021-4.8242 0-1.7441.328-3.3522.984-4.8242.655-1.472 1.626-2.6471 2.913-3.5254 1.299-.8782 2.857-1.3174 4.675-1.3174 1.943 0 3.526.4454 4.75 1.336 1.237.8906 2.128 2.0101 2.672 3.3584.545 1.3359.817 2.709.817 4.1191 0 .334-.019.668-.056 1.002-.025.3216-.056.5566-.093.705h-13.34c.123 1.8184.655 3.2409 1.595 4.2676.953 1.0143 2.282 1.5215 3.989 1.5215 1.04 0 1.961-.167 2.765-.501.804-.3463 1.583-.9215 2.338-1.7256l2.189 1.9112c-1.026 1.1009-2.127 1.9049-3.302 2.4121-1.163.5071-2.499.7607-4.008.7607zm4.806-10.9472c0-.5319-.025-.9216-.075-1.169-.111-.804-.377-1.5338-.797-2.1894-.409-.668-.978-1.1999-1.708-1.5957-.717-.4082-1.57-.6123-2.56-.6123-1.522 0-2.728.5071-3.618 1.5214-.891 1.002-1.429 2.3503-1.614 4.045z" fill="url(#a)"/><rect fill="url(#b)" height="39" rx="4" width="39" x=".000061" y="4"/><path d="m30.9891 28.3664c-.2144-.264-.5744-.3616-.8912-.248-.888.3184-1.8512.4816-2.8656.4816-4.8528 0-8.8-3.9488-8.8-8.8 0-2.92 1.4416-5.6384 3.856-7.2736.2736-.1856.4048-.52.3312-.8416s-.3376-.5648-.6656-.6128c-.3744-.0544-.7472-.072-1.1216-.072-6.6176 0-11.99996 5.3824-11.99996 12s5.38236 12 11.99996 12c4.2 0 8.0208-2.1344 10.2176-5.7088.1776-.2896.152-.6592-.0608-.9248z" fill="#fff"/></svg>

<svg width="366" height="52" viewBox="0 0 366 52" fill="none" xmlns="http://www.w3.org/2000/svg">
<path d="M62.6656 10.7822H65.2633L75.2457 37H71.7017L69.5123 30.877H58.4722L56.2457 37H52.6832L62.6656 10.7822ZM68.4918 28.0752L63.983 15.458L59.4928 28.0752H68.4918ZM78.7322 18.4639H81.7937V22.1006C82.0782 21.2471 82.5112 20.5234 83.0926 19.9297C83.6739 19.3359 84.3234 18.8906 85.0408 18.5938C85.7706 18.2969 86.5128 18.1484 87.2674 18.1484C87.8364 18.1484 88.3868 18.235 88.9187 18.4082C89.4506 18.569 89.9207 18.8226 90.3289 19.1689L88.8816 21.7666C88.2137 21.3955 87.521 21.21 86.8035 21.21C85.9624 21.21 85.1583 21.4512 84.3914 21.9336C83.6245 22.416 82.9936 23.1768 82.4988 24.2158C82.0164 25.2425 81.7752 26.529 81.7752 28.0752V37H78.7322V18.4639ZM99.7158 18.1484C101.312 18.1484 102.678 18.4577 103.816 19.0762C104.967 19.6823 105.839 20.5544 106.433 21.6924C107.026 22.8304 107.323 24.1663 107.323 25.7002V37H104.707L104.503 33.6973C103.872 34.86 102.975 35.7568 101.812 36.3877C100.65 37.0062 99.4066 37.3154 98.083 37.3154C96.8213 37.3154 95.6956 37.0866 94.7061 36.6289C93.7288 36.1589 92.9619 35.4909 92.4053 34.625C91.8486 33.7467 91.5703 32.7077 91.5703 31.5078C91.5703 29.6647 92.2383 28.3226 93.5742 27.4814C94.9225 26.6279 96.8027 26.2012 99.2148 26.2012H104.466C104.453 24.9642 104.299 23.9622 104.002 23.1953C103.705 22.416 103.21 21.8408 102.518 21.4697C101.837 21.0863 100.916 20.8945 99.7529 20.8945C97.6377 20.8945 95.9554 21.8594 94.7061 23.7891L92.2939 22.0449C93.234 20.7585 94.2979 19.7874 95.4854 19.1318C96.6729 18.4762 98.083 18.1484 99.7158 18.1484ZM98.6953 34.625C100.204 34.625 101.46 34.1735 102.462 33.2705C103.476 32.3551 104.144 31.1676 104.466 29.708V28.502H99.4004C97.8789 28.502 96.7285 28.7803 95.9492 29.3369C95.1823 29.8936 94.7988 30.6543 94.7988 31.6191C94.7988 32.5345 95.139 33.2643 95.8193 33.8086C96.4997 34.3529 97.4583 34.625 98.6953 34.625ZM119.957 34.5508C121.565 34.7858 122.87 35.0518 123.872 35.3486C124.887 35.6331 125.74 36.1279 126.433 36.833C127.126 37.5381 127.472 38.5215 127.472 39.7832C127.472 41.0202 127.132 42.0778 126.451 42.9561C125.783 43.8343 124.856 44.4961 123.668 44.9414C122.481 45.3867 121.12 45.6094 119.586 45.6094C117.805 45.6094 116.271 45.3372 114.985 44.793C113.711 44.2487 112.739 43.4941 112.072 42.5293C111.404 41.5768 111.07 40.4759 111.07 39.2266C111.07 38.9297 111.088 38.6576 111.125 38.4102L113.686 36.1279C112.214 35.361 111.478 34.1673 111.478 32.5469C111.478 31.7676 111.639 31.0811 111.96 30.4873C112.282 29.8936 112.758 29.3617 113.389 28.8916C112.882 28.3226 112.492 27.6794 112.22 26.9619C111.948 26.2445 111.812 25.4775 111.812 24.6611C111.812 23.4118 112.133 22.2923 112.777 21.3027C113.42 20.3132 114.292 19.54 115.393 18.9834C116.494 18.4268 117.706 18.1484 119.03 18.1484C119.895 18.1484 120.718 18.2721 121.497 18.5195C122.277 18.7546 122.982 19.0947 123.613 19.54L126.247 17.2578L127.88 19.2988L125.338 21.4141C125.957 22.416 126.266 23.554 126.266 24.8281C126.266 26.1022 125.95 27.2279 125.32 28.2051C124.689 29.1823 123.829 29.9368 122.74 30.4688C121.652 31.0007 120.446 31.2666 119.122 31.2666C117.737 31.2666 116.475 30.9759 115.337 30.3945C114.57 30.7656 114.187 31.3037 114.187 32.0088C114.187 32.5531 114.391 32.9798 114.799 33.2891C115.22 33.5983 115.758 33.8271 116.413 33.9756C117.081 34.124 118.046 34.2848 119.308 34.458L119.957 34.5508ZM119.141 20.5977C118.324 20.5977 117.607 20.7708 116.988 21.1172C116.37 21.4635 115.894 21.946 115.56 22.5645C115.226 23.1829 115.059 23.888 115.059 24.6797C115.059 25.4714 115.22 26.1702 115.541 26.7764C115.875 27.3701 116.345 27.8402 116.951 28.1865C117.57 28.5205 118.294 28.6875 119.122 28.6875C119.951 28.6875 120.669 28.5205 121.275 28.1865C121.881 27.8525 122.345 27.3825 122.666 26.7764C122.988 26.1702 123.149 25.4775 123.149 24.6982C123.149 23.8942 122.988 23.1829 122.666 22.5645C122.345 21.946 121.881 21.4635 121.275 21.1172C120.669 20.7708 119.957 20.5977 119.141 20.5977ZM119.568 43.1416C121.077 43.1416 122.27 42.8757 123.149 42.3438C124.039 41.8118 124.485 41.0697 124.485 40.1172C124.485 39.474 124.262 38.973 123.817 38.6143C123.384 38.2555 122.79 37.9896 122.035 37.8164C121.293 37.6432 120.236 37.4701 118.863 37.2969C118.751 37.2845 118.343 37.235 117.638 37.1484C116.945 37.0618 116.277 36.9443 115.634 36.7959L113.89 39.0781L113.946 39.6348C114.131 40.7728 114.725 41.6387 115.727 42.2324C116.741 42.8385 118.021 43.1416 119.568 43.1416ZM138.918 37.3154C137.15 37.3154 135.572 36.8887 134.187 36.0352C132.802 35.1693 131.719 34.0065 130.94 32.5469C130.173 31.0749 129.789 29.4544 129.789 27.6855C129.789 25.929 130.173 24.3271 130.94 22.8799C131.719 21.4202 132.802 20.2699 134.187 19.4287C135.572 18.5752 137.15 18.1484 138.918 18.1484C140.687 18.1484 142.264 18.5752 143.65 19.4287C145.048 20.2699 146.136 21.4202 146.915 22.8799C147.695 24.3395 148.084 25.9414 148.084 27.6855C148.084 29.4544 147.695 31.0749 146.915 32.5469C146.136 34.0065 145.048 35.1693 143.65 36.0352C142.264 36.8887 140.687 37.3154 138.918 37.3154ZM138.918 34.5879C140.155 34.5879 141.219 34.2786 142.11 33.6602C143 33.0417 143.675 32.2129 144.132 31.1738C144.59 30.1224 144.819 28.9596 144.819 27.6855C144.819 26.4238 144.59 25.2796 144.132 24.2529C143.675 23.2139 143 22.3913 142.11 21.7852C141.219 21.179 140.155 20.876 138.918 20.876C137.694 20.876 136.636 21.179 135.746 21.7852C134.867 22.3789 134.199 23.1953 133.742 24.2344C133.284 25.2611 133.055 26.4115 133.055 27.6855C133.055 28.9596 133.284 30.1224 133.742 31.1738C134.199 32.2253 134.867 33.0602 135.746 33.6787C136.636 34.2848 137.694 34.5879 138.918 34.5879ZM152.239 18.4639H155.375V21.2842C155.993 20.2575 156.803 19.4782 157.805 18.9463C158.807 18.4144 159.89 18.1484 161.052 18.1484C162.5 18.1484 163.706 18.4762 164.671 19.1318C165.648 19.7751 166.371 20.6471 166.841 21.748C167.324 22.849 167.577 24.0859 167.602 25.459V37H164.466V26.0342C164.466 24.4756 164.102 23.2572 163.372 22.3789C162.642 21.5007 161.584 21.0615 160.199 21.0615C158.69 21.0615 157.508 21.513 156.655 22.416C155.801 23.3066 155.375 24.6055 155.375 26.3125V37H152.239V18.4639ZM182.776 10.7822H190.031C192.938 10.7822 195.394 11.2956 197.398 12.3223C199.401 13.349 200.917 14.8581 201.943 16.8496C202.97 18.8288 203.483 21.2409 203.483 24.0859C203.483 26.8073 202.958 29.1328 201.906 31.0625C200.867 32.9922 199.34 34.4642 197.323 35.4785C195.307 36.4928 192.864 37 189.994 37H182.776V10.7822ZM189.679 33.9941C193.08 33.9941 195.684 33.1777 197.49 31.5449C199.309 29.9121 200.218 27.3825 200.218 23.9561C200.218 20.4801 199.389 17.9196 197.732 16.2744C196.074 14.6169 193.489 13.7881 189.976 13.7881H186.042V33.9941H189.679ZM214.707 18.1484C216.303 18.1484 217.67 18.4577 218.808 19.0762C219.958 19.6823 220.83 20.5544 221.424 21.6924C222.018 22.8304 222.315 24.1663 222.315 25.7002V37H219.699L219.494 33.6973C218.864 34.86 217.967 35.7568 216.804 36.3877C215.641 37.0062 214.398 37.3154 213.074 37.3154C211.813 37.3154 210.687 37.0866 209.698 36.6289C208.72 36.1589 207.953 35.4909 207.397 34.625C206.84 33.7467 206.562 32.7077 206.562 31.5078C206.562 29.6647 207.23 28.3226 208.566 27.4814C209.914 26.6279 211.794 26.2012 214.206 26.2012H219.457C219.445 24.9642 219.29 23.9622 218.993 23.1953C218.697 22.416 218.202 21.8408 217.509 21.4697C216.829 21.0863 215.907 20.8945 214.744 20.8945C212.629 20.8945 210.947 21.8594 209.698 23.7891L207.285 22.0449C208.226 20.7585 209.289 19.7874 210.477 19.1318C211.664 18.4762 213.074 18.1484 214.707 18.1484ZM213.687 34.625C215.196 34.625 216.451 34.1735 217.453 33.2705C218.468 32.3551 219.136 31.1676 219.457 29.708V28.502H214.392C212.87 28.502 211.72 28.7803 210.941 29.3369C210.174 29.8936 209.79 30.6543 209.79 31.6191C209.79 32.5345 210.13 33.2643 210.811 33.8086C211.491 34.3529 212.45 34.625 213.687 34.625ZM227.564 18.4639H230.625V22.1006C230.91 21.2471 231.343 20.5234 231.924 19.9297C232.506 19.3359 233.155 18.8906 233.873 18.5938C234.602 18.2969 235.345 18.1484 236.099 18.1484C236.668 18.1484 237.219 18.235 237.75 18.4082C238.282 18.569 238.752 18.8226 239.161 19.1689L237.713 21.7666C237.045 21.3955 236.353 21.21 235.635 21.21C234.794 21.21 233.99 21.4512 233.223 21.9336C232.456 22.416 231.825 23.1768 231.331 24.2158C230.848 25.2425 230.607 26.529 230.607 28.0752V37H227.564V18.4639ZM242.072 10.7822H245.208V27.7598L253.91 18.4639H258.01L251.201 25.4775L258.975 37H255.264L249.067 27.4258L245.208 31.5264V37H242.072V10.7822ZM261.998 18.4639H265.041V21.377C265.56 20.2884 266.29 19.4782 267.23 18.9463C268.17 18.4144 269.24 18.1484 270.44 18.1484C271.776 18.1484 272.939 18.4639 273.929 19.0947C274.918 19.7132 275.629 20.6719 276.062 21.9707C276.656 20.6966 277.479 19.7441 278.53 19.1133C279.594 18.4701 280.794 18.1484 282.13 18.1484C283.589 18.1484 284.802 18.4886 285.767 19.1689C286.731 19.8493 287.443 20.7832 287.9 21.9707C288.37 23.1582 288.605 24.5251 288.605 26.0713V37H285.451V26.4424C285.451 24.6982 285.142 23.3685 284.523 22.4531C283.917 21.5378 282.915 21.0801 281.517 21.0801C280.59 21.0801 279.773 21.3089 279.068 21.7666C278.363 22.2119 277.819 22.8304 277.435 23.6221C277.064 24.4014 276.879 25.2858 276.879 26.2754V37H273.743V25.9785C273.743 24.4323 273.428 23.2324 272.797 22.3789C272.166 21.513 271.176 21.0801 269.828 21.0801C268.888 21.0801 268.065 21.3089 267.36 21.7666C266.655 22.2119 266.111 22.8304 265.727 23.6221C265.356 24.4014 265.171 25.2858 265.171 26.2754V37H262.017L261.998 18.4639ZM301.332 37.3154C299.563 37.3154 297.986 36.8887 296.601 36.0352C295.215 35.1693 294.133 34.0065 293.354 32.5469C292.587 31.0749 292.203 29.4544 292.203 27.6855C292.203 25.929 292.587 24.3271 293.354 22.8799C294.133 21.4202 295.215 20.2699 296.601 19.4287C297.986 18.5752 299.563 18.1484 301.332 18.1484C303.101 18.1484 304.678 18.5752 306.064 19.4287C307.461 20.2699 308.55 21.4202 309.329 22.8799C310.109 24.3395 310.498 25.9414 310.498 27.6855C310.498 29.4544 310.109 31.0749 309.329 32.5469C308.55 34.0065 307.461 35.1693 306.064 36.0352C304.678 36.8887 303.101 37.3154 301.332 37.3154ZM301.332 34.5879C302.569 34.5879 303.633 34.2786 304.524 33.6602C305.414 33.0417 306.088 32.2129 306.546 31.1738C307.004 30.1224 307.233 28.9596 307.233 27.6855C307.233 26.4238 307.004 25.2796 306.546 24.2529C306.088 23.2139 305.414 22.3913 304.524 21.7852C303.633 21.179 302.569 20.876 301.332 20.876C300.108 20.876 299.05 21.179 298.159 21.7852C297.281 22.3789 296.613 23.1953 296.155 24.2344C295.698 25.2611 295.469 26.4115 295.469 27.6855C295.469 28.9596 295.698 30.1224 296.155 31.1738C296.613 32.2253 297.281 33.0602 298.159 33.6787C299.05 34.2848 300.108 34.5879 301.332 34.5879ZM321.314 37.3154C319.669 37.3154 318.228 36.8887 316.991 36.0352C315.754 35.1693 314.801 34.0065 314.133 32.5469C313.465 31.0872 313.131 29.4792 313.131 27.7227C313.131 25.9785 313.459 24.3766 314.115 22.917C314.783 21.4574 315.729 20.3008 316.953 19.4473C318.19 18.5814 319.625 18.1484 321.258 18.1484C322.582 18.1484 323.794 18.4701 324.895 19.1133C326.008 19.7565 326.862 20.6533 327.455 21.8037V10.7822H330.647V37H327.715L327.585 33.4932C326.992 34.7054 326.132 35.6455 325.006 36.3135C323.893 36.9814 322.662 37.3154 321.314 37.3154ZM322.056 34.458C323.231 34.458 324.245 34.1673 325.099 33.5859C325.952 33.0046 326.602 32.2067 327.047 31.1924C327.492 30.1657 327.715 29.0091 327.715 27.7227C327.715 26.4486 327.492 25.3044 327.047 24.29C326.602 23.2633 325.952 22.4593 325.099 21.8779C324.245 21.2965 323.231 21.0059 322.056 21.0059C320.881 21.0059 319.86 21.3027 318.994 21.8965C318.129 22.4779 317.467 23.2819 317.009 24.3086C316.551 25.3229 316.323 26.4609 316.323 27.7227C316.323 28.9967 316.551 30.1471 317.009 31.1738C317.467 32.1882 318.129 32.9922 318.994 33.5859C319.86 34.1673 320.881 34.458 322.056 34.458ZM343.819 37.3154C341.926 37.3154 340.312 36.8949 338.976 36.0537C337.64 35.2126 336.632 34.0745 335.952 32.6396C335.271 31.1924 334.931 29.5843 334.931 27.8154C334.931 26.0713 335.259 24.4632 335.915 22.9912C336.57 21.5192 337.541 20.3441 338.828 19.4658C340.127 18.5876 341.685 18.1484 343.503 18.1484C345.446 18.1484 347.029 18.5938 348.253 19.4844C349.49 20.375 350.381 21.4945 350.925 22.8428C351.47 24.1787 351.742 25.5518 351.742 26.9619C351.742 27.2959 351.723 27.6299 351.686 27.9639C351.661 28.2855 351.63 28.5205 351.593 28.6689H338.253C338.376 30.4873 338.908 31.9098 339.848 32.9365C340.801 33.9508 342.13 34.458 343.837 34.458C344.877 34.458 345.798 34.291 346.602 33.957C347.406 33.6107 348.185 33.0355 348.94 32.2314L351.129 34.1426C350.103 35.2435 349.002 36.0475 347.827 36.5547C346.664 37.0618 345.328 37.3154 343.819 37.3154ZM348.625 26.3682C348.625 25.8363 348.6 25.4466 348.55 25.1992C348.439 24.3952 348.173 23.6654 347.753 23.0098C347.344 22.3418 346.775 21.8099 346.045 21.4141C345.328 21.0059 344.475 20.8018 343.485 20.8018C341.963 20.8018 340.757 21.3089 339.867 22.3232C338.976 23.3252 338.438 24.6735 338.253 26.3682H348.625Z" fill="url(#paint0_linear)"/>
<rect x="6.10352e-05" y="4" width="39" height="39" rx="4" fill="url(#paint1_linear)"/>
<path d="M30.9891 28.3664C30.7747 28.1024 30.4147 28.0048 30.0979 28.1184C29.2099 28.4368 28.2467 28.6 27.2323 28.6C22.3795 28.6 18.4323 24.6512 18.4323 19.8C18.4323 16.88 19.8739 14.1616 22.2883 12.5264C22.5619 12.3408 22.6931 12.0064 22.6195 11.6848C22.5459 11.3632 22.2819 11.12 21.9539 11.072C21.5795 11.0176 21.2067 11 20.8323 11C14.2147 11 8.83234 16.3824 8.83234 23C8.83234 29.6176 14.2147 35 20.8323 35C25.0323 35 28.8531 32.8656 31.0499 29.2912C31.2275 29.0016 31.2019 28.632 30.9891 28.3664Z" fill="white"/>
<defs>
<linearGradient id="paint0_linear" x1="416" y1="46" x2="399.732" y2="-58.6226" gradientUnits="userSpaceOnUse">
<stop stop-color="#402DFF"/>
<stop offset="1" stop-color="#C86DD7"/>
</linearGradient>
<linearGradient id="paint1_linear" x1="39.0001" y1="43" x2="13.1174" y2="-10.7245" gradientUnits="userSpaceOnUse">
<stop stop-color="#3023AE"/>
<stop offset="1" stop-color="#C86DD7"/>
</linearGradient>
</defs>
</svg>
